gama.ui.shared/icons_svg/light/experiment/experiment.reload.svg

<svg height="25" viewBox="-726.933 -3695.231 25 25" width="25" xmlns="http://www.w3.org/2000/svg"><g fill="none"><circle cx="-714.433" cy="-3682.731" fill="#fff" r="12"/><circle cx="-714.433" cy="-3682.731" r="12" stroke="#000" stroke-linecap="round" stroke-linejoin="round" stroke-width=".25"/><path d="m-719.8842-3687.133c1.3144-1.618 3.2978-2.598 5.4444-2.598 3.8656 0 7 3.1345 7 7 0 3.8656-3.1344 7-7 7-3.8655 0-6.75885-2.8855-6.9844-6.572-.0156-.218.1478-.397.36555-.4124.21775-.0156.39665.1478.41225.3654.2022 3.2746 2.9166 5.8412 6.2144 5.8412s6.2222-2.7842 6.2222-6.2222c0-3.4378-2.7922-6.222-6.23-6.222-1.9211 0-3.6944.8787-4.8611 2.333h2.1389c.2178 0 .3889.1712.3889.389 0 .218-.1711.389-.3889.389h-3.1111c-.2178 0-.3889-.171-.3889-.389v-3.111c0-.218.1711-.389.3889-.389s.3889.171.3889.389z" fill="#5c76a1"/></g></svg>

<?xml version="1.0" encoding="UTF-8" standalone="no"?>
<!DOCTYPE svg PUBLIC "-//W3C//DTD SVG 1.1//EN" "http://www.w3.org/Graphics/SVG/1.1/DTD/svg11.dtd">
<svg version="1.1" xmlns="http://www.w3.org/2000/svg" xmlns:xl="http://www.w3.org/1999/xlink" xmlns:dc="http://purl.org/dc/elements/1.1/" viewBox="-726.9325 -3695.231 24.999996 25" width="24.999996" height="25">
  <defs/>
  <g id="SOURCES" stroke-dasharray="none" fill="none" stroke="none" fill-opacity="1" stroke-opacity="1">
    <title>SOURCES</title>
    <g id="SOURCES_Calque_2">
      <title>Calque 2</title>
      <g id="Graphic_9179">
        <circle cx="-714.4325" cy="-3682.731" r="12.000018268838" fill="white"/>
        <circle cx="-714.4325" cy="-3682.731" r="12.000018268838" stroke="black" stroke-linecap="round" stroke-linejoin="round" stroke-width=".25"/>
      </g>
      <g id="Group_9193">
        <title>refresh-left</title>
        <g id="Graphic_9194">
          <path d="M -719.8842 -3687.133 C -718.5698 -3688.751 -716.5864 -3689.731 -714.4398 -3689.731 C -710.5742 -3689.731 -707.4398 -3686.5965 -707.4398 -3682.731 C -707.4398 -3678.8654 -710.5742 -3675.731 -714.4398 -3675.731 C -718.3053 -3675.731 -721.19865 -3678.6165 -721.4242 -3682.303 C -721.4398 -3682.521 -721.2764 -3682.7 -721.05865 -3682.7154 C -720.8409 -3682.731 -720.662 -3682.5676 -720.6464 -3682.35 C -720.4442 -3679.0754 -717.7298 -3676.5088 -714.432 -3676.5088 C -711.1342 -3676.5088 -708.2098 -3679.293 -708.2098 -3682.731 C -708.2098 -3686.1688 -711.002 -3688.953 -714.4398 -3688.953 C -716.3609 -3688.953 -718.1342 -3688.0743 -719.3009 -3686.62 L -717.162 -3686.62 C -716.9442 -3686.62 -716.7731 -3686.4488 -716.7731 -3686.231 C -716.7731 -3686.013 -716.9442 -3685.842 -717.162 -3685.842 L -720.2731 -3685.842 C -720.4909 -3685.842 -720.662 -3686.013 -720.662 -3686.231 L -720.662 -3689.342 C -720.662 -3689.56 -720.4909 -3689.731 -720.2731 -3689.731 C -720.0553 -3689.731 -719.8842 -3689.56 -719.8842 -3689.342 Z" fill="#5c76a1"/>
        </g>
      </g>
    </g>
  </g>
</svg>
